**kern	**kern	**kern	**kern
*staff4	*staff3	*staff2	*staff1
=1-	=1-	=1-	=1-
*clefF4	*clefGv2	*clefGv2	*clefG2
*k[b-]	*k[b-]	*k[b-]	*k[b-]
*met(C|)	*met(C|)	*met(C|)	*met(C|)
*M2/2	*M2/2	*M2/2	*M2/2
0r	0B-	0r	0r
=2	=2	=2	=2
0r	1F	0r	0r
.	1G	.	.
=3	=3	=3	=3
0r	2G/	0r	0b-
.	2A/	.	.
.	2B-\	.	.
.	2c\	.	.
=4	=4	=4	=4
0r	1d	0r	1f
.	2.e-\	.	1g
.	4d\	.	.
=5	=5	=5	=5
0r	2e-\	0r	2g/
.	2f\	.	2a/
.	2.e-\	.	2b-\
.	.	.	2cc\
.	8d\L	.	.
.	8c\J	.	.
=6	=6	=6	=6
0r	2B-\	0B-	1dd
.	1f	.	.
.	.	.	2cc\
.	2d\	.	[2b-\
=7	=7	=7	=7
!!linebreak:default
0r	1c	1F	2b-\]
.	.	.	2a/
.	[1B-	1G	1b-
=8	=8	=8	=8
0E-	2B-\]	2G/	0r
.	2A/	2A/	.
.	1G	2B-\	.
.	.	2c\	.
=9	=9	=9	=9
1BB-	1F	1d	0r
1C	1r	2.e-\	.
.	.	4d\	.
=10	=10	=10	=10
2C/	0r	2e-\	0r
2D\	.	2f\	.
2E-\	.	2g\	.
2F\	.	[2a\	.
=11	=11	=11	=11
2G\	0r	4a\]	1dd
.	.	4g\	.
2B-\	.	2.g\	.
1A	.	.	1cc
.	.	4f#\	.
.	.	4f#\	.
.	.	4e\	.
=12	=12	=12	=12
1G	2r	1g	1b-
.	2d\	.	.
1r	2e\	1r	1cc
.	2f\	.	.
=13	=13	=13	=13
!!linebreak:default
1r	1B-	2r	1dd
.	.	2.d\	.
2r	1r	.	1r
.	.	4c\	.
[2d\	.	4B-\	.
.	.	4A/	.
=14	=14	=14	=14
4d\]	0r	2.B-\	0r
4c\	.	.	.
4B-\	.	.	.
4A\	.	4c\	.
2B-\	.	2G/	.
2c\	.	[2A/	.
=15	=15	=15	=15
1G	0r	4A/]	0r
.	.	4G/	.
.	.	1G	.
1A	.	.	.
.	.	2F#/	.
=16	=16	=16	=16
1G	1r	1G	2r
.	.	.	2.dd\
2r	2r	2r	.
.	.	.	4cc\
2G\	[2d\	2g\	4b-\
.	.	.	4a/
=17	=17	=17	=17
2.G\	4d\]	2.g\	2.b-\
.	4c\	.	.
.	4B-\	.	.
4A\	4A/	4f\	4cc\
2G\	2B-\	2e\	2g/
2F\	2c\	2f\	[2a/
=18	=18	=18	=18
1E-	1G	2B-\	4a/]
.	.	.	4g/
.	.	2c\	1g
1D	1A	2.d\	.
.	.	.	2f#/
.	.	4c\	.
=19	=19	=19	=19
!!pagebreak:default
2r	1G	4B-\	2g/
.	.	4A/	.
2G\	.	2d\	1b-
2G\	2r	1G	.
2E-\	2c\	.	4a/
.	.	.	4g/
=20	=20	=20	=20
2D\	2.d\	1A	1f
2.F\	.	.	.
.	4d\	.	.
.	2c\	1r	1r
4E-\	.	.	.
4D\	[2d\	.	.
4C/	.	.	.
=21	=21	=21	=21
2BB-/	4d\]	1r	1r
.	4c\	.	.
2D\	1B-	.	.
1C	.	2r	2r
.	2A/	2e-\	2cc\
=22	=22	=22	=22
1BB-	1B-	2d\	2.dd\
.	.	2.f\	.
.	.	.	4dd\
1r	1r	.	2cc\
.	.	4e-\	.
.	.	4d\	[2dd\
.	.	4c\	.
=23	=23	=23	=23
1r	0r	2B-\	4dd\]
.	.	.	4cc\
.	.	2d\	1b-
2r	.	1c	.
2F\	.	.	2a/
=24	=24	=24	=24
2.G\	0r	1B-	1b-
4F\	.	.	.
2G\	.	2r	1r
2E-\	.	2c\	.
=25	=25	=25	=25
!!linebreak:default
0D	0r	2.d\	0r
.	.	4c\	.
.	.	2d\	.
.	.	2B-\	.
=26	=26	=26	=26
0r	0r	2A/	2r
.	.	2a\	2cc\
.	.	2f\	2.dd\
.	.	[2g\	.
.	.	.	4cc\
=27	=27	=27	=27
0r	0r	4g\]	2dd\
.	.	4f\	.
.	.	4d\	2b-\
.	.	4e\	.
.	.	4f\	4a/
.	.	4g\	4b-\
.	.	[2a\	4cc\
.	.	.	4dd\
=28	=28	=28	=28
0r	2r	4a\]	4ee\
.	.	4g\	4ff\
.	2c\	2e\	2gg\
.	2.d\	2f\	2ff\
.	.	2g\	[2ee\
.	4c\	.	.
=29	=29	=29	=29
1r	2d\	1d	4ee\]
.	.	.	4dd\
.	2B-\	.	1dd
2r	1A	1e	.
2A\	.	.	2cc#\
=30	=30	=30	=30
2B-\	0r	1d	1dd
2B-\	.	.	.
1G	.	2r	1r
.	.	2e\	.
=31	=31	=31	=31
!!linebreak:default
1F	0r	2f\	1r
.	.	2f\	.
2r	.	1d	2r
2G\	.	.	2b-\
=32	=32	=32	=32
2A\	2r	1c	2cc\
2A\	2e\	.	2cc\
2F\	2f\	2r	1a
2F\	2f\	2c\	.
=33	=33	=33	=33
1G	1d	2B-\	1g
.	.	2B-\	.
1C	1c	2e-\	2r
.	.	2e-\	2cc\
=34	=34	=34	=34
1D	2r	1d	2b-\
.	2F/	.	2a/
1E-	2G/	2r	2g/
.	2G/	2c\	2g/
=35	=35	=35	=35
1D	2A/	1d	1f
.	2A/	.	.
2r	1G	1e-	2r
2C/	.	.	2cc\
=36	=36	=36	=36
1D	2r	1d	2a/
.	2F/	.	1b-
1E-	1G	2r	.
.	.	2c\	4a/
.	.	.	4g/
=37	=37	=37	=37
!!linebreak:default
1D	1A	2d\	1f
.	.	2d\	.
2r	1G	1e-	2r
2C/	.	.	2cc\
=38	=38	=38	=38
1D	2r	1d	2a/
.	2F/	.	1b-
1E-	1G	2r	.
.	.	2c\	4a/
.	.	.	4g/
=39	=39	=39	=39
1D	1A	1d	1f
2r	2.G/	1e-	2g/
[2G\	.	.	[2b-\
.	4A/	.	.
=40	=40	=40	=40
2G\]	2B-\	2d\	2b-\]
1F	1c	2.f\	2.a/
.	.	4e-\	4g/
[2G\	2G/	4d\	[2b-\
.	.	4c\	.
=41	=41	=41	=41
2G\]	2B-\	2d\	4b-\]
.	.	.	4a/
2C/	2c\	2e-\	1g
1D	1A	1d	.
.	.	.	2f#/
=42	=42	=42	=42
0G	0G	0d	0g
1r	1r	1r	1r
=43	=43	=43	=43
!!pagebreak:default
0.r	0g	0.r	0g
.	1g	.	1b-
=44	=44	=44	=44
0.r	1f	0.r	1a
.	1g	.	1b-
.	1e	.	1cc
=45	=45	=45	=45
0G	0d	0G	0dd
1G	1r	1B-	1r
=46	=46	=46	=46
1F	1d	1A	0.r
1G	1d	1B-	.
1E-	1e-	1c	.
=47	=47	=47	=47
0D	0f	0d	1dd
.	.	.	1dd
1r	1e-	1r	1ee-
=48	=48	=48	=48
0.r	0d	0.r	0ff
.	1c	.	1ee-
=49	=49	=49	=49
0.r	0d	1d	0dd
.	.	1d	.
.	1r	1e-	1cc
=50	=50	=50	=50
!!linebreak:default
1D	0.r	0f	0dd
1D	.	.	.
1E-	.	1e-	1r
=51	=51	=51	=51
0F	0.r	0d	0.r
1E-	.	1c	.
=52	=52	=52	=52
0D	0.r	0d	1ff
.	.	.	1ff
1C	.	1r	1ee-
=53	=53	=53	=53
0D	0.r	1A	1.dd
.	.	1A	.
.	.	.	2cc\
1G	.	1B-	1b-
=54	=54	=54	=54
0F	1f	0c	0a
.	1f	.	.
1C	1e	1g	1cc
=55	=55	=55	=55
0G	1.d	1.g	1.b-
.	2c\	2f\	2a/
1G	1B-	1d	1g
=56	=56	=56	=56
1D	1A	1d	1f
1E-	1G	1g	1.b-
[1F	[1c	[1f	.
.	.	.	2a/
=57	=57	=57	=57
!!linebreak:default
1F]	1c]	2f\]	0a
.	.	2e\	.
0G	0B-	1d	.
.	.	1e	1g
=58	=58	=58	=58
0D	0A	1d	0a
.	.	2r	.
.	.	2d\	.
=59	=59	=59	=59
2r	0r	2.d\	0r
2d\	.	.	.
.	.	4c\	.
2.d\	.	2B-\	.
.	.	2A/	.
4c\	.	.	.
=60	=60	=60	=60
2B-\	1r	2G/	2r
2A\	.	2F/	2dd\
2G\	2r	2G/	2.dd\
2F\	2d\	2D/	.
.	.	.	4cc\
=61	=61	=61	=61
2G\	2.d\	2d\	2b-\
2D\	.	2.f\	2a/
.	4c\	.	.
2r	2B-\	.	2g/
.	.	4e\	.
2D\	2A/	4d\	2f/
.	.	4c\	.
=62	=62	=62	=62
!!linebreak:default
2E-\	2G/	2B-\	2g/
2D\	2F/	2.d\	2a/
2G\	2G/	.	2b-\
.	.	8c\L	.
.	.	8B-\J	.
2F\	2A/	2f\	2cc\
=63	=63	=63	=63
2G\	2B-\	2d\	2.g/
2C/	2c\	2e-\	.
.	.	.	4a/
2r	2.G/	1d	4b-\
.	.	.	4cc\
[2G\	.	.	[2dd\
.	4A/	.	.
=64	=64	=64	=64
4G\]	4B-\	2.g\	4dd\]
4A\	4c\	.	4cc\
1G	1d	.	4b-\
.	.	4f\	4a/
.	.	2g\	2b-\
2A\	[2c\	2e\	[2a/
=65	=65	=65	=65
2F\	2c\]	2f\	4a/]
.	.	.	4g/
2G\	2B-\	2.d\	1g
1D	1A	.	.
.	.	4c\	.
.	.	2A/	2f#/
=66	=66	=66	=66
[0G	[0G	1B-	[0g
.	.	1e-	.
=67	=67	=67	=67
0G]	0G]	0d	0g]
==	==	==	==
*-	*-	*-	*-
